resources/svg/chat-check-line.svg

<svg fill="currentColor" viewBox="0 0 24 24" xmlns="http://www.w3.org/2000/svg"><path d="M6.45455 19L2 22.5V4C2 3.44772 2.44772 3 3 3H21C21.5523 3 22 3.44772 22 4V18C22 18.5523 21.5523 19 21 19H6.45455ZM5.76282 17H20V5H4V18.3851L5.76282 17ZM11.2929 12.1213L15.5355 7.87868L16.9497 9.29289L11.2929 14.9497L7.40381 11.0607L8.81802 9.64645L11.2929 12.1213Z"/></svg>

<svg xmlns="http://www.w3.org/2000/svg" viewBox="0 0 24 24" fill="currentColor">
    <g>
        <path fill="none" d="M0 0h24v24H0z"/>
        <path d="M6.455 19L2 22.5V4a1 1 0 0 1 1-1h18a1 1 0 0 1 1 1v14a1 1 0 0 1-1 1H6.455zm-.692-2H20V5H4v13.385L5.763 17zm5.53-4.879l4.243-4.242 1.414 1.414-5.657 5.657-3.89-3.89 1.415-1.414 2.475 2.475z"/>
    </g>
</svg>
